; generated by PrusaSlicer 2.6.0+win64 on 2023-06-20 at 16:49:35 UTC

; 

; external perimeters extrusion width = 0.63mm
; perimeters extrusion width = 0.66mm
; infill extrusion width = 0.66mm
; solid infill extrusion width = 0.66mm
; top infill extrusion width = 0.60mm
; support material extrusion width = 0.54mm
; first layer extrusion width = 0.63mm

; external perimeters extrusion width = 0.63mm
; perimeters extrusion width = 0.66mm
; infill extrusion width = 0.66mm
; solid infill extrusion width = 0.66mm
; top infill extrusion width = 0.60mm
; support material extrusion width = 0.54mm
; first layer extrusion width = 0.63mm

; external perimeters extrusion width = 0.63mm
; perimeters extrusion width = 0.66mm
; infill extrusion width = 0.66mm
; solid infill extrusion width = 0.66mm
; top infill extrusion width = 0.60mm
; support material extrusion width = 0.54mm
; first layer extrusion width = 0.63mm

M201 X500 Y500 Z100 E5000 ; sets maximum accelerations, mm/sec^2
M203 X500 Y500 Z10 E60 ; sets maximum feedrates, mm / sec
M204 S500 T1000 ; sets acceleration (S) and retract acceleration (R), mm/sec^2
M205 X8.00 Y8.00 Z0.40 E5.00 ; sets the jerk limits, mm/sec
M205 S0 T0 ; sets the minimum extruding and travel feed rate, mm/sec
;TYPE:Custom
G90 ; use absolute coordinates
M83 ; extruder relative mode
M104 S150 ; set temporary nozzle temp to prevent oozing during homing
M140 S70 ; set final bed temp
G4 S30 ; allow partial nozzle warmup
G28 ; home all axis
G1 Z50 F240
G1 X2.0 Y10 F3000
M104 S210 ; set final nozzle temp
M190 S70 ; wait for bed temp to stabilize
M109 S210 ; wait for nozzle temp to stabilize
G1 Z0.28 F240
G92 E0
G1 X2.0 Y140 E10 F1500 ; prime the nozzle
G1 X2.3 Y140 F5000
G92 E0
G1 X2.3 Y10 E10 F1200 ; prime the nozzle
G92 E0
G21 ; set units to millimeters
G90 ; use absolute coordinates
M83 ; use relative distances for extrusion
; Filament gcode
M107
;LAYER_CHANGE
;Z:0.3
;HEIGHT:0.3
;BEFORE_LAYER_CHANGE
G92 E0
;0.3


G1 E-5 F3600
G1 Z.3 F9000
;AFTER_LAYER_CHANGE
;0.3
G1 X101.893 Y105.233
G1 E5 F2400
M204 S500
;TYPE:Skirt/Brim
;WIDTH:0.63
G1 F1200
G1 X102.836 Y104.345 E.09229
G1 X106.211 Y102.302 E.2811
G1 X110.123 Y100.363 E.3111
G1 X111.231 Y100.062 E.08181
G1 X112.291 Y99.95 E.07595
G1 X123.146 Y99.953 E.77345
G1 X124.271 Y100.103 E.08087
G1 X125.367 Y100.433 E.08156
G1 X126.213 Y100.832 E.06665
G1 X127.153 Y101.461 E.08059
G1 X127.911 Y102.16 E.07347
G1 X130.289 Y104.761 E.25111
G1 X131.027 Y105.834 E.09279
G1 X131.555 Y106.809 E.079
G1 X131.977 Y108.08 E.09542
G1 X132.184 Y109.411 E.09598
G1 X132.168 Y116.895 E.53326
G1 X131.338 Y119.174 E.17282
G1 X123.338 Y128.746 E.88887
G1 X122.944 Y129.149 E.04016
G1 X122.341 Y129.588 E.05315
G1 X121.073 Y130.32 E.10432
G1 X120.392 Y130.623 E.05311
G1 X119.606 Y130.796 E.05735
G1 X117.695 Y130.968 E.13671
G1 X112.461 Y130.835 E.37306
G1 X111.672 Y130.674 E.05738
G1 X110.28 Y130.221 E.1043
G1 X109.599 Y129.918 E.05311
G1 X108.944 Y129.45 E.05736
G1 X107.563 Y128.174 E.13397
G1 X99.73 Y119.26 E.84552
G1 X98.842 Y116.948 E.17647
G1 X98.811 Y111.133 E.41434
G1 X98.951 Y109.949 E.08495
G1 X99.304 Y108.745 E.0894
G1 X99.861 Y107.656 E.08715
G1 X100.343 Y106.995 E.05829
G1 X101.833 Y105.3 E.1608
G1 E-3.5 F3600
;WIPE_START
G1 F7200
G1 X102.836 Y104.345 E-.65784
G1 X104.353 Y103.427 E-.84216
;WIPE_END
G1 X104.86 Y107.973 F9000
G1 E5 F2400
G1 F1200
G1 X105.127 Y107.671 E.02872
G1 X105.572 Y107.337 E.03964
G1 X106.405 Y106.994 E.06419
G1 X107.074 Y106.891 E.04823
G1 X107.212 Y106.672 E.01844
G1 X107.663 Y106.172 E.04798
G1 X108.129 Y105.836 E.04093
G1 X108.611 Y105.614 E.03781
G1 X109.335 Y105.452 E.05286
G1 X109.942 Y105.44 E.04326
G1 X110.114 Y105.174 E.02257
G1 X110.656 Y104.612 E.05563
G1 X111.284 Y104.228 E.05245
G1 X112.052 Y104.006 E.05696
G1 X123.217 Y104.001 E.79554
G1 X124.134 Y104.278 E.06825
G1 X124.565 Y104.542 E.03601
G1 X124.945 Y104.874 E.03595
G1 X127.154 Y107.276 E.23252
G1 X127.826 Y108.34 E.08967
G1 X128.01 Y108.802 E.03543
G1 X128.161 Y109.622 E.05941
G1 X128.135 Y116.194 E.46828
G1 X128.072 Y116.457 E.01927
G1 X127.921 Y116.821 E.02808
G1 X127.778 Y117.052 E.01936
G1 X127.097 Y117.75 E.06948
G1 X126.876 Y117.91 E.01944
G1 X126.415 Y118.114 E.03592
G1 X126.032 Y118.19 E.02782
G1 X104.969 Y118.19 E1.50079
G1 X104.591 Y118.115 E.02746
G1 X104.229 Y117.966 E.02789
G1 X103.998 Y117.826 E.01925
G1 X103.3 Y117.15 E.06924
G1 X103.139 Y116.93 E.01942
G1 X102.933 Y116.47 E.03591
G1 X102.854 Y116.088 E.02779
G1 X102.831 Y111.194 E.34871
G1 X102.987 Y110.387 E.05857
G1 X103.377 Y109.635 E.06036
G1 X103.813 Y109.146 E.04668
G1 X104.39 Y108.722 E.05102
G1 X104.698 Y108.157 E.04585
G1 X104.801 Y108.04 E.01111
G1 X105.225 Y108.415 F9000
G1 F1200
G1 X105.53 Y108.069 E.03286
G1 X105.876 Y107.815 E.03058
G1 X106.58 Y107.533 E.05404
G1 X106.997 Y107.474 E.03001
G1 X107.399 Y107.464 E.02865
G1 X107.658 Y107.022 E.0365
G1 X108.024 Y106.608 E.03937
G1 X108.392 Y106.338 E.03252
G1 X108.818 Y106.142 E.03341
G1 X109.423 Y106.012 E.04409
G1 X110.27 Y106.005 E.06035
G1 X110.551 Y105.534 E.03908
G1 X110.984 Y105.074 E.04501
G1 X111.544 Y104.732 E.04675
G1 X112.164 Y104.562 E.04581
G1 X123.098 Y104.555 E.77908
G1 X123.876 Y104.782 E.05775
G1 X124.214 Y104.986 E.02813
G1 X124.54 Y105.269 E.03076
G1 X126.72 Y107.64 E.2295
G1 X127.333 Y108.618 E.08224
G1 X127.459 Y108.935 E.02431
G1 X127.595 Y109.648 E.05172
G1 X127.576 Y116.102 E.45987
G1 X127.54 Y116.264 E.01182
G1 X127.408 Y116.58 E.0244
G1 X127.319 Y116.721 E.01188
G1 X126.714 Y117.332 E.06127
G1 X126.578 Y117.429 E.0119
G1 X126.221 Y117.582 E.02767
G1 X126.005 Y117.625 E.01569
G1 X104.997 Y117.625 E1.49688
G1 X104.78 Y117.582 E.01576
G1 X104.468 Y117.453 E.02406
G1 X104.327 Y117.365 E.01184
G1 X103.715 Y116.766 E.06102
G1 X103.618 Y116.629 E.01196
G1 X103.464 Y116.273 E.02764
G1 X103.42 Y116.058 E.01564
G1 X103.397 Y111.221 E.34465
G1 X103.533 Y110.538 E.04962
G1 X103.822 Y109.986 E.0444
G1 X104.213 Y109.547 E.04189
G1 X104.829 Y109.103 E.0541
G1 X105.165 Y108.482 E.05031
G1 X105.59 Y108.855 F9000
G1 F1200
G1 X105.931 Y108.469 E.0367
G1 X106.174 Y108.296 E.02125
G1 X106.693 Y108.088 E.03984
G1 X107.058 Y108.037 E.02626
G1 X107.795 Y108.025 E.05252
G1 X107.948 Y107.648 E.02899
G1 X108.106 Y107.368 E.02291
G1 X108.391 Y107.04 E.03096
G1 X108.658 Y106.838 E.02386
G1 X109.026 Y106.669 E.02885
G1 X109.456 Y106.577 E.03133
G1 X110.678 Y106.568 E.08707
G1 X110.864 Y106.112 E.03509
G1 X110.992 Y105.89 E.01826
G1 X111.322 Y105.529 E.03485
G1 X111.737 Y105.266 E.03501
G1 X112.277 Y105.117 E.03991
G1 X122.984 Y105.11 E.7629
G1 X123.623 Y105.29 E.0473
G1 X123.866 Y105.433 E.02009
G1 X124.135 Y105.664 E.02526
G1 X126.285 Y108.003 E.22637
G1 X126.84 Y108.895 E.07486
G1 X126.91 Y109.071 E.0135
G1 X127.029 Y109.676 E.04393
G1 X127.005 Y116.076 E.45602
G1 X126.867 Y116.38 E.02379
G1 X126.337 Y116.91 E.05341
G1 X125.977 Y117.059 E.02776
G1 X104.97 Y117.048 E1.4968
G1 X104.666 Y116.911 E.02376
G1 X104.136 Y116.387 E.0531
G1 X103.985 Y116.027 E.02782
G1 X103.963 Y111.249 E.34045
G1 X104.078 Y110.695 E.04032
G1 X104.27 Y110.332 E.02926
G1 X104.571 Y109.986 E.03268
G1 X105.319 Y109.448 E.06565
G1 X105.415 Y109.183 E.02008
G1 X105.548 Y108.935 E.02005
G1 X106.04 Y109.201 F9000
G1 F1200
G1 X106.329 Y108.873 E.03115
G1 X106.463 Y108.783 E.0115
G1 X106.809 Y108.643 E.0266
G1 X107.086 Y108.602 E.01995
G1 X107.852 Y108.59 E.05459
G1 X108.059 Y108.516 E.01566
G1 X108.298 Y108.296 E.02315
G1 X108.451 Y107.907 E.02978
G1 X108.583 Y107.674 E.01908
G1 X108.79 Y107.441 E.02221
G1 X108.964 Y107.315 E.01531
G1 X109.227 Y107.198 E.02051
G1 X109.489 Y107.142 E.01909
G1 X110.726 Y107.121 E.08815
G1 X110.943 Y107.047 E.01634
G1 X111.183 Y106.828 E.02315
G1 X111.379 Y106.346 E.03707
G1 X111.465 Y106.201 E.01201
G1 X111.658 Y105.985 E.02064
G1 X111.999 Y105.77 E.02872
G1 X112.378 Y105.674 E.02786
G1 X122.944 Y105.675 E.75286
G1 X123.374 Y105.798 E.03187
G1 X123.522 Y105.882 E.01213
G1 X123.731 Y106.06 E.01956
G1 X125.85 Y108.365 E.22309
G1 X126.362 Y109.212 E.07052
G1 X126.464 Y109.705 E.03587
G1 X126.451 Y115.936 E.44398
G1 X126.408 Y116.04 E.00802
G1 X125.997 Y116.45 E.04136
G1 X125.893 Y116.493 E.00802
G1 X105.108 Y116.493 E1.48099
G1 X105.005 Y116.451 E.00793
G1 X104.594 Y116.044 E.04121
G1 X104.551 Y115.94 E.00802
G1 X104.528 Y111.279 E.33211
G1 X104.621 Y110.857 E.03079
G1 X104.716 Y110.681 E.01425
G1 X104.975 Y110.384 E.02808
G1 X105.71 Y109.865 E.06411
G1 X105.849 Y109.649 E.0183
G1 X105.929 Y109.418 E.01742
G1 X105.999 Y109.281 E.01096
G1 X106.503 Y109.537 F9000
G1 F1200
G1 X106.686 Y109.312 E.02066
G1 X106.935 Y109.195 E.0196
G1 X107.116 Y109.167 E.01305
G1 X107.913 Y109.154 E.0568
G1 X108.123 Y109.101 E.01543
G1 X108.314 Y109.018 E.01484
G1 X108.488 Y108.904 E.01482
G1 X108.642 Y108.764 E.01483
G1 X108.77 Y108.6 E.01482
G1 X108.868 Y108.42 E.0146
G1 X108.965 Y108.145 E.02078
G1 X109.03 Y108.022 E.00991
G1 X109.191 Y107.842 E.01721
G1 X109.379 Y107.744 E.01511
G1 X109.577 Y107.702 E.01442
G1 X110.593 Y107.7 E.07239
G1 X110.807 Y107.682 E.0153
G1 X111.009 Y107.631 E.01484
G1 X111.2 Y107.548 E.01484
G1 X111.374 Y107.434 E.01482
G1 X111.528 Y107.294 E.01483
G1 X111.656 Y107.13 E.01482
G1 X111.758 Y106.944 E.01511
G1 X111.899 Y106.572 E.02835
G1 X112.042 Y106.402 E.01583
G1 X112.243 Y106.281 E.01672
G1 X112.464 Y106.233 E.01611
G1 X122.834 Y106.231 E.73889
G1 X123.141 Y106.314 E.02266
G1 X123.327 Y106.457 E.01672
G1 X125.414 Y108.727 E.21971
G1 X125.825 Y109.403 E.05637
G1 X125.898 Y109.737 E.02436
G1 X125.885 Y115.762 E.4293
G1 X125.72 Y115.928 E.01668
G1 X105.28 Y115.928 E1.4564
G1 X105.115 Y115.764 E.01658
G1 X105.094 Y111.306 E.31765
G1 X105.169 Y111.022 E.02093
G1 X105.375 Y110.785 E.02237
G1 X106.008 Y110.355 E.05453
G1 X106.161 Y110.21 E.01502
G1 X106.364 Y109.893 E.02682
G1 X106.462 Y109.618 E.0208
; printing object secator switcher.STL id:0 copy 0
G1 E-3.5 F3600
;WIPE_START
G1 F7200
G1 X106.686 Y109.312 E-.18013
G1 X106.935 Y109.195 E-.13068
G1 X107.116 Y109.167 E-.087
G1 X107.913 Y109.154 E-.37863
G1 X108.123 Y109.101 E-.10288
G1 X108.314 Y109.018 E-.09892
G1 X108.488 Y108.904 E-.09881
G1 X108.642 Y108.764 E-.09886
G1 X108.77 Y108.6 E-.09882
G1 X108.868 Y108.42 E-.09735
G1 X108.958 Y108.166 E-.12792
;WIPE_END
G1 X121.49 Y119.799 F9000
G1 E5 F2400
;TYPE:Support material
G1 F1200
G1 X121.198 Y121.173 E.10009
G1 X120.767 Y121.765 E.05218
G1 X121.217 Y122.384 E.05453
G1 X121.509 Y123.758 E.10009
G1 X121.217 Y125.133 E.10016
G1 X120.391 Y126.269 E.10008
G1 X119.174 Y126.972 E.10014
G1 X117.777 Y127.119 E.10009
G1 X116.668 Y126.758 E.0831
G1 X116.311 Y126.714 E.02563
G1 X115.742 Y126.33 E.04891
G1 X114.316 Y126.877 E.10883
G1 X114.175 Y126.862 E.0101
G1 X114.125 Y126.884 E.00389
G1 X113.956 Y126.886 E.01204
G1 X112.833 Y127.004 E.08046
G1 X111.497 Y126.57 E.10009
G1 X110.453 Y125.63 E.1001
G1 X109.882 Y124.347 E.10006
G1 X109.882 Y122.942 E.10011
G1 X110.428 Y121.714 E.09576
G1 X109.882 Y120.487 E.09569
G1 X109.891 Y119.06 E.10168
G1 X121.333 Y119.06 E.81527
G1 X121.472 Y119.716 E.04778
G1 X120.528 Y125.648 F9000
G1 F1200
G1 X120.528 Y122.302 E.23841
G1 X120.138 Y121.765 E.04729
G1 X120.528 Y121.229 E.04723
G1 X120.528 Y119.569 E.11828
G1 X119.899 Y119.569 E.04482
G1 X119.899 Y125.966 E.4558
G1 X119.271 Y126.328 E.05165
G1 X119.271 Y119.569 E.4816
G1 X118.642 Y119.569 E.04482
G1 X118.642 Y126.516 E.49499
G1 X118.014 Y126.582 E.04499
G1 X118.014 Y119.569 E.49969
G1 X117.385 Y119.569 E.04482
G1 X117.385 Y126.456 E.49072
G1 X116.757 Y126.257 E.04694
G1 X116.757 Y119.569 E.47654
G1 X116.128 Y119.569 E.04482
G1 X116.128 Y125.977 E.45659
G1 X115.807 Y125.76 E.02761
G1 X115.5 Y125.878 E.02343
G1 X115.5 Y119.569 E.44953
G1 X114.872 Y119.569 E.04475
G1 X114.872 Y126.119 E.4667
G1 X114.246 Y126.358 E.04774
G1 X114.243 Y119.569 E.48373
G1 X113.615 Y119.569 E.04475
G1 X113.615 Y126.41 E.48744
G1 X112.986 Y126.476 E.04506
G1 X112.986 Y119.569 E.49214
G1 X112.358 Y119.569 E.04475
G1 X112.358 Y126.315 E.48067
G1 X111.757 Y126.12 E.04502
G1 X111.729 Y126.094 E.00272
G1 X111.729 Y119.569 E.46492
G1 X111.101 Y119.569 E.04475
G1 X111.101 Y125.528 E.42459
G1 X110.874 Y125.324 E.02175
G1 X110.472 Y124.422 E.07036
G1 X110.472 Y122.866 E.11087
G1 X110.985 Y121.714 E.08985
G1 X110.472 Y120.562 E.08985
G1 X110.472 Y119.315 E.08885
G1 E-3.5 F3600
;WIPE_START
G1 F7200
G1 X110.472 Y120.562 E-.59232
G1 X110.985 Y121.714 E-.599
G1 X110.721 Y122.308 E-.30868
;WIPE_END
G1 X106.273 Y114.764 F9000
G1 E5 F2400
;TYPE:Perimeter
;WIDTH:0.63
G1 F1200
G1 X106.259 Y111.592 E.22602
G1 X106.839 Y111.167 E.05123
G1 X107.235 Y110.715 E.04282
G1 X107.418 Y110.332 E.03024
G1 X107.668 Y110.333 E.01781
G1 X108.104 Y110.281 E.03129
G1 X108.628 Y110.147 E.03854
G1 X109.084 Y109.901 E.03692
G1 X109.308 Y109.727 E.02021
G1 X109.677 Y109.328 E.03872
G1 X109.921 Y108.862 E.03748
G1 X110.745 Y108.852 E.05872
G1 X111.251 Y108.767 E.03656
G1 X111.514 Y108.677 E.01981
G1 X111.97 Y108.431 E.03692
G1 X112.19 Y108.261 E.01981
G1 X112.542 Y107.88 E.03696
G1 X112.806 Y107.399 E.0391
G1 X122.609 Y107.395 E.69849
G1 X124.427 Y109.372 E.19137
G1 X124.702 Y109.778 E.03494
G1 X124.734 Y109.89 E.0083
G1 X124.724 Y114.764 E.34729
G1 X106.363 Y114.764 E1.30827
G1 X105.71 Y115.33 F9000
;TYPE:External perimeter
G1 F1200
G1 X105.692 Y111.358 E.28302
G1 X105.775 Y111.236 E.01051
G1 X106.417 Y110.79 E.0557
G1 X106.751 Y110.417 E.03568
G1 X106.972 Y109.936 E.03772
G1 X107.076 Y109.789 E.01283
G1 X107.232 Y109.766 E.01124
G1 X107.766 Y109.764 E.03805
G1 X108.36 Y109.649 E.04311
G1 X108.893 Y109.343 E.04379
G1 X109.256 Y108.949 E.03817
G1 X109.481 Y108.454 E.03874
G1 X109.578 Y108.319 E.01184
G1 X109.723 Y108.296 E.01046
G1 X110.652 Y108.294 E.06619
G1 X111.246 Y108.179 E.04311
G1 X111.775 Y107.876 E.04344
G1 X112.178 Y107.419 E.04341
G1 X112.404 Y106.91 E.03968
G1 X112.483 Y106.833 E.00786
G1 X122.745 Y106.829 E.73119
G1 X122.904 Y106.88 E.0119
G1 X124.954 Y109.11 E.21583
G1 X125.258 Y109.601 E.04115
G1 X125.3 Y109.891 E.02088
G1 X125.288 Y115.33 E.38754
G1 X105.8 Y115.33 E1.38857
G1 X105.96 Y114.785 F9000
G1 E-3.5 F3600
;WIPE_START
G1 F7200
G1 X105.714 Y112.173 E-1.5
;WIPE_END
G1 X124.553 Y109.973 F9000
G1 E5 F2400
;TYPE:Solid infill
;WIDTH:0.649787
G1 F1200
G1 X122.411 Y107.83 E.22344
G1 X121.583 Y107.831 E.06106
G1 X124.297 Y110.545 E.28305
G1 X124.295 Y111.371 E.06091
G1 X120.756 Y107.831 E.36914
G1 X119.928 Y107.831 E.06106
G1 X124.294 Y112.197 E.45534
G1 X124.292 Y113.023 E.06091
G1 X119.101 Y107.832 E.54138
G1 X118.273 Y107.832 E.06106
G1 X124.29 Y113.849 E.62752
G1 X124.289 Y114.329 E.0354
G1 X123.942 Y114.329 E.02559
G1 X117.446 Y107.832 E.67753
G1 X116.618 Y107.833 E.06106
G1 X123.114 Y114.329 E.67748
G1 X122.286 Y114.329 E.06106
G1 X115.791 Y107.833 E.67743
G1 X114.963 Y107.834 E.06106
G1 X121.458 Y114.329 E.67737
G1 X120.63 Y114.329 E.06106
G1 X114.135 Y107.834 E.67737
G1 X113.308 Y107.834 E.06099
G1 X119.803 Y114.329 E.67737
G1 X118.975 Y114.329 E.06106
G1 X112.843 Y108.197 E.63952
G1 X112.441 Y108.623 E.04319
G1 X118.147 Y114.329 E.59509
G1 X117.319 Y114.329 E.06106
G1 X111.935 Y108.945 E.56151
G1 X111.53 Y109.144 E.03328
G1 X111.352 Y109.19 E.01356
G1 X116.491 Y114.329 E.53595
G1 X115.663 Y114.329 E.06106
G1 X110.63 Y109.296 E.5249
G1 X110.194 Y109.297 E.03215
G1 X110.05 Y109.544 E.02108
G1 X114.835 Y114.329 E.49903
G1 X114.007 Y114.329 E.06106
G1 X109.663 Y109.984 E.45309
G1 X109.302 Y110.279 E.03438
G1 X109.19 Y110.339 E.00937
G1 X113.179 Y114.329 E.41607
G1 X112.352 Y114.329 E.06099
G1 X108.627 Y110.605 E.38843
G1 X108.459 Y110.663 E.01311
G1 X107.942 Y110.747 E.03863
G1 X111.524 Y114.329 E.37357
G1 X110.696 Y114.329 E.06106
G1 X107.471 Y111.104 E.33634
G1 X107.076 Y111.537 E.04322
G1 X109.868 Y114.329 E.29118
G1 X109.04 Y114.329 E.06106
G1 X106.696 Y111.985 E.24446
G1 X106.7 Y112.817 E.06136
G1 X108.212 Y114.329 E.15769
G1 X107.384 Y114.329 E.06106
G1 X106.448 Y113.393 E.09762
; stop printing object secator switcher.STL id:0 copy 0
;LAYER_CHANGE
;Z:0.46
;HEIGHT:0.16
;BEFORE_LAYER_CHANGE
G92 E0
;0.46


G1 E-3.5 F3600
;WIPE_START
G1 F7200
G1 X107.384 Y114.329 E-.62876
G1 X108.212 Y114.329 E-.3933
